src/topics/icons/swiftype.svg

<svg height="315" preserveAspectRatio="xMidYMid" viewBox="0 0 256 315" width="256" xmlns="http://www.w3.org/2000/svg"><path d="m249.408 62.308c-4.359-14.935-11.258-27.047-20.593-36.309-9.345-9.29-21.224-15.935-35.667-19.955-14.451-4.028-31.733-6.044-51.853-6.044-24.101 0-45.032 3.761-62.729 11.286-17.741 7.532-32.43 19.285-44.067 35.265-11.653 15.991-20.318 36.466-25.982 61.433-5.695 24.967-8.517 54.958-8.517 89.949 0 20.306 1.835 37.773 5.504 52.418 3.67 14.64 9.867 26.753 18.584 36.317 8.673 9.564 20.266 16.629 34.713 21.177s32.467 6.822 53.995 6.822c14.386 0 27.897-1.274 40.598-3.855 12.69-2.564 24.299-6.871 34.835-12.935 10.523-6.08 20.035-14.032 28.523-23.902 8.443-9.855 15.535-22.092 21.277-36.753 5.754-14.645 10.19-31.813 13.31-51.53 3.113-19.718 4.661-42.418 4.661-68.095 0-21.927-2.21-40.353-6.592-55.289" fill="#f55341"/><path d="m192.781 140.689h-32.201l-40.994 32.027-40.894 99.217zm-129.634 31.989h56.22l.219.038 50.472-123.026z" fill="#fff"/></svg>

<?xml version="1.0" encoding="UTF-8" standalone="no"?>
<svg width="256px" height="315px" viewBox="0 0 256 315" version="1.1" xmlns="http://www.w3.org/2000/svg" xmlns:xlink="http://www.w3.org/1999/xlink" preserveAspectRatio="xMidYMid">
	<g>
		<path d="M249.408,62.308 C245.049,47.373 238.15,35.261 228.815,25.999 C219.47,16.709 207.591,10.064 193.148,6.044 C178.697,2.016 161.415,0 141.295,0 C117.194,0 96.263,3.761 78.566,11.286 C60.825,18.818 46.136,30.571 34.499,46.551 C22.846,62.542 14.181,83.017 8.517,107.984 C2.822,132.951 0,162.942 0,197.933 C0,218.239 1.835,235.706 5.504,250.351 C9.174,264.991 15.371,277.104 24.088,286.668 C32.761,296.232 44.354,303.297 58.801,307.845 C73.248,312.393 91.268,314.667 112.796,314.667 C127.182,314.667 140.693,313.393 153.394,310.812 C166.084,308.248 177.693,303.941 188.229,297.877 C198.752,291.797 208.264,283.845 216.752,273.975 C225.195,264.12 232.287,251.883 238.029,237.222 C243.783,222.577 248.219,205.409 251.339,185.692 C254.452,165.974 256,143.274 256,117.597 C256,95.67 253.79,77.244 249.408,62.308" fill="#F55341"></path>
		<path d="M192.781,140.689 L160.58,140.689 L119.586,172.716 L78.692,271.933 L192.781,140.689 Z M63.147,172.678 L119.367,172.678 L119.586,172.716 L170.058,49.69 L63.147,172.678 Z" fill="#FFFFFF"></path>
	</g>
</svg>
